X: 3
T: Killeigh, The
Z: ceolachan
S: https://thesession.org/tunes/6456#setting18166
R: hornpipe
M: 4/4
L: 1/8
K: Gmaj
|: (3DEF |G2 A>F G>AB>d | g2 e>g d>GB>d | e>GB>d B>AG>B | (3ABA (3GFE D2 (3DEF |
G2 A>F G>AB>d | g2 e>g d>GB>d | e>GB>d B>AG>E | G2 (3AGF G2 :|
|: B2 |d>GB>d e>GB>d | g2 b>g d>GB>d | c>ec>A B>dB>G | (3ABA (3GFE D2 B |
d>GB>d e>GB>d | g2 b>g d>GB>d | E>GB>d B>AG>E | G2 (3AGF G2 :|
